; generated by Slic3r 1.2.9 on 2019-05-06 at 15:19:04

; external perimeters extrusion width = 0.40mm
; perimeters extrusion width = 0.56mm
; infill extrusion width = 0.56mm
; solid infill extrusion width = 0.56mm
; top infill extrusion width = 0.56mm

G28 ; home all axes
G21 ; set units to millimeters
G90 ; use absolute coordinates
M82 ; use absolute distances for extrusion
G92 E0 ; reset extrusion distance
G1 E-0.50000 F420.00000 ; retract
G92 E0 ; reset extrusion distance
G1 Z0.250 F6000.000 ; move to next layer (0)
G1 X93.942 Y73.505 F6000.000 ; move to first skirt point
G1 E0.50000 F420.00000 ; unretract
G1 X96.242 Y71.205 E0.55783 F1800.000 ; skirt
G1 X98.105 Y69.904 E0.59822 ; skirt
G1 X100.301 Y69.323 E0.63861 ; skirt
G1 X102.563 Y69.533 E0.67900 ; skirt
G1 X105.438 Y71.205 E0.73813 F1800.000 ; skirt
G1 X116.138 Y81.905 E1.00714 ; skirt
G1 X117.439 Y83.768 E1.04753 ; skirt
G1 X118.035 Y86.191 E1.09189 ; skirt
G1 X118.943 Y105.197 E1.43016 ; skirt
G1 X118.943 Y124.197 E1.76794 ; skirt
G1 X118.546 Y126.434 E1.80833 ; skirt
G1 X117.403 Y128.398 E1.84872 ; skirt
G1 X115.655 Y129.849 E1.88911 ; skirt
G1 X112.440 Y130.699 E1.94824 ; skirt
G1 X95.389 Y130.699 E2.25137 ; skirt
G1 X93.152 Y130.302 E2.29176 ; skirt
G1 X91.188 Y129.160 E2.33215 ; skirt
G1 X89.737 Y127.412 E2.37254 ; skirt
G1 X88.886 Y124.197 E2.43167 ; skirt
G1 X88.886 Y108.197 E2.71611 ; skirt
G1 X88.922 Y107.519 E2.72817 ; skirt
G1 X92.073 Y77.426 E3.26608 ; skirt
G1 X92.701 Y75.243 E3.30648 ; skirt
G1 X93.907 Y73.554 E3.34337 ; skirt
G1 E2.84337 F420.00000 ; retract
G92 E0 ; reset extrusion distance
G1 X110.413 Y106.324 F6000.000 ; move to first perimeter point
G1 E0.50000 F420.00000 ; unretract
G1 X111.313 Y106.324 E0.51600 F2100.000 ; perimeter
G1 X111.313 Y123.070 E0.81370 ; perimeter
G1 X96.516 Y123.070 E1.07676 ; perimeter
G1 X96.516 Y109.324 E1.32112 ; perimeter
G1 X99.667 Y109.324 E1.37714 ; perimeter
G1 X99.667 Y78.570 E1.92388 ; perimeter
G1 X100.840 Y77.397 E1.95336 ; perimeter
G1 X110.413 Y86.970 E2.19404 ; perimeter
G1 X110.413 Y106.264 E2.53704 ; perimeter
G1 X110.916 Y105.821 F6000.000 ; move to first perimeter point
G1 X111.816 Y105.821 E2.55304 F2100.000 ; perimeter
G1 X111.816 Y123.572 E2.86861 ; perimeter
G1 X96.013 Y123.572 E3.14954 ; perimeter
G1 X96.013 Y108.821 E3.41178 ; perimeter
G1 X99.165 Y108.821 E3.46780 ; perimeter
G1 X99.165 Y78.362 E4.00930 ; perimeter
G1 X100.840 Y76.686 E4.05142 ; perimeter
G1 X110.916 Y86.762 E4.30473 ; perimeter
G1 X110.916 Y105.761 E4.64250 ; perimeter
G1 X111.340 Y105.397 F6000.000 ; move to first perimeter point
G1 X112.240 Y105.397 E4.65352 F1050.000 ; perimeter
G1 X112.240 Y123.997 E4.88137 ; perimeter
G1 X95.589 Y123.997 E5.08534 ; perimeter
G1 X95.589 Y108.397 E5.27643 ; perimeter
G1 X98.740 Y108.397 E5.31503 ; perimeter
G1 X98.740 Y78.186 E5.68510 ; perimeter
G1 X100.840 Y76.086 E5.72148 ; perimeter
G1 X111.340 Y86.586 E5.90337 ; perimeter
G1 X111.340 Y105.337 E6.13306 ; perimeter
G1 X111.340 Y105.797 F6000.000 ; move inwards before travel
G1 E5.63306 F420.00000 ; retract
G92 E0 ; reset extrusion distance
G1 X110.112 Y87.274 F6000.000 ; move to first infill point
G1 E0.50000 F420.00000 ; unretract
G1 X100.733 Y77.895 E0.73677 F2700.000 ; infill
G1 X100.377 Y78.252 E0.74578 ; infill
G1 X110.112 Y87.988 E0.99156 ; infill
G1 X110.112 Y88.701 E1.00430 ; infill
G1 X100.020 Y78.609 E1.25909 ; infill
G1 X99.968 Y79.271 E1.27094 ; infill
G1 X110.112 Y89.415 E1.52704 ; infill
G1 X110.112 Y90.129 E1.53978 ; infill
G1 X99.968 Y79.984 E1.79588 ; infill
G1 X99.968 Y80.698 E1.80862 ; infill
G1 X110.112 Y90.843 E2.06472 ; infill
G1 X110.112 Y91.556 E2.07746 ; infill
G1 X99.968 Y81.412 E2.33356 ; infill
G1 X99.968 Y82.126 E2.34630 ; infill
G1 X110.112 Y92.270 E2.60240 ; infill
G1 X110.112 Y92.984 E2.61514 ; infill
G1 X99.968 Y82.840 E2.87124 ; infill
G1 X99.968 Y83.553 E2.88398 ; infill
G1 X110.112 Y93.698 E3.14007 ; infill
G1 X110.112 Y94.412 E3.15282 ; infill
G1 X99.968 Y84.267 E3.40891 ; infill
G1 X99.968 Y84.981 E3.42166 ; infill
G1 X110.112 Y95.125 E3.67775 ; infill
G1 X110.112 Y95.839 E3.69050 ; infill
G1 X99.968 Y85.695 E3.94659 ; infill
G1 X99.968 Y86.409 E3.95933 ; infill
G1 X110.112 Y96.553 E4.21543 ; infill
G1 X110.112 Y97.267 E4.22817 ; infill
G1 X99.968 Y87.122 E4.48427 ; infill
G1 X99.968 Y87.836 E4.49701 ; infill
G1 X110.112 Y97.981 E4.75311 ; infill
G1 X110.112 Y98.694 E4.76585 ; infill
G1 X99.968 Y88.550 E5.02195 ; infill
G1 X99.968 Y89.264 E5.03469 ; infill
G1 X110.112 Y99.408 E5.29079 ; infill
G1 X110.112 Y100.122 E5.30353 ; infill
G1 X99.968 Y89.978 E5.55963 ; infill
G1 X99.968 Y90.691 E5.57237 ; infill
G1 X110.112 Y100.836 E5.82847 ; infill
G1 X110.112 Y101.550 E5.84121 ; infill
G1 X99.968 Y91.405 E6.09731 ; infill
G1 X99.968 Y92.119 E6.11005 ; infill
G1 X110.112 Y102.263 E6.36614 ; infill
G1 X110.112 Y102.977 E6.37889 ; infill
G1 X99.968 Y92.833 E6.63498 ; infill
G1 X99.968 Y93.546 E6.64773 ; infill
G1 X110.112 Y103.691 E6.90382 ; infill
G1 X110.112 Y104.405 E6.91656 ; infill
G1 X99.968 Y94.260 E7.17266 ; infill
G1 X99.968 Y94.974 E7.18540 ; infill
G1 X110.112 Y105.118 E7.44150 ; infill
G1 X110.112 Y105.832 E7.45424 ; infill
G1 X99.968 Y95.688 E7.71034 ; infill
G1 X99.968 Y96.402 E7.72308 ; infill
G1 X111.012 Y107.446 E8.00190 ; infill
G1 X111.012 Y108.160 E8.01464 ; infill
G1 X99.968 Y97.115 E8.29346 ; infill
G1 X99.968 Y97.829 E8.30620 ; infill
G1 X111.012 Y108.874 E8.58502 ; infill
G1 X111.012 Y109.587 E8.59776 ; infill
G1 X99.968 Y98.543 E8.87658 ; infill
G1 X99.968 Y99.257 E8.88932 ; infill
G1 X111.012 Y110.301 E9.16814 ; infill
G1 X111.012 Y111.015 E9.18088 ; infill
G1 X99.968 Y99.971 E9.45970 ; infill
G1 X99.968 Y100.684 E9.47244 ; infill
G1 X111.012 Y111.729 E9.75126 ; infill
G1 X111.012 Y112.443 E9.76400 ; infill
G1 X99.968 Y101.398 E10.04282 ; infill
G1 X99.968 Y102.112 E10.05556 ; infill
G1 X111.012 Y113.156 E10.33438 ; infill
G1 X111.012 Y113.870 E10.34712 ; infill
G1 X99.968 Y102.826 E10.62594 ; infill
G1 X99.968 Y103.539 E10.63868 ; infill
G1 X111.012 Y114.584 E10.91750 ; infill
G1 X111.012 Y115.298 E10.93024 ; infill
G1 X99.968 Y104.253 E11.20906 ; infill
G1 X99.968 Y104.967 E11.22180 ; infill
G1 X111.012 Y116.012 E11.50062 ; infill
G1 X111.012 Y116.725 E11.51336 ; infill
G1 X99.968 Y105.681 E11.79218 ; infill
G1 X99.968 Y106.395 E11.80492 ; infill
G1 X111.012 Y117.439 E12.08374 ; infill
G1 X111.012 Y118.153 E12.09648 ; infill
G1 X99.968 Y107.108 E12.37530 ; infill
G1 X99.968 Y107.822 E12.38804 ; infill
G1 X111.012 Y118.867 E12.66686 ; infill
G1 X111.012 Y119.580 E12.67960 ; infill
G1 X99.968 Y108.536 E12.95842 ; infill
G1 X99.968 Y109.250 E12.97116 ; infill
G1 X111.012 Y120.294 E13.24998 ; infill
G1 X111.012 Y121.008 E13.26272 ; infill
G1 X99.629 Y109.624 E13.55010 ; infill
G1 X98.915 Y109.624 E13.56284 ; infill
G1 X111.012 Y121.722 E13.86824 ; infill
G1 X111.012 Y122.436 E13.88098 ; infill
G1 X98.201 Y109.624 E14.20440 ; infill
G1 X97.487 Y109.624 E14.21714 ; infill
G1 X110.632 Y122.769 E14.54897 ; infill
G1 X109.918 Y122.769 E14.56172 ; infill
G1 X96.817 Y109.668 E14.89246 ; infill
G1 X96.817 Y110.381 E14.90520 ; infill
G1 X109.204 Y122.769 E15.21793 ; infill
G1 X108.490 Y122.769 E15.23067 ; infill
G1 X96.817 Y111.095 E15.52538 ; infill
G1 X96.817 Y111.809 E15.53812 ; infill
G1 X107.777 Y122.769 E15.81480 ; infill
G1 X107.063 Y122.769 E15.82755 ; infill
G1 X96.817 Y112.523 E16.08621 ; infill
G1 X96.817 Y113.237 E16.09896 ; infill
G1 X106.349 Y122.769 E16.33960 ; infill
G1 X105.635 Y122.769 E16.35234 ; infill
G1 X96.817 Y113.950 E16.57497 ; infill
G1 X96.817 Y114.664 E16.58771 ; infill
G1 X104.922 Y122.769 E16.79232 ; infill
G1 X104.208 Y122.769 E16.80506 ; infill
G1 X96.817 Y115.378 E16.99165 ; infill
G1 X96.817 Y116.092 E17.00439 ; infill
G1 X103.494 Y122.769 E17.17296 ; infill
G1 X102.780 Y122.769 E17.18570 ; infill
G1 X96.817 Y116.805 E17.33625 ; infill
G1 X96.817 Y117.519 E17.34899 ; infill
G1 X102.066 Y122.769 E17.48152 ; infill
G1 X101.353 Y122.769 E17.49426 ; infill
G1 X96.817 Y118.233 E17.60877 ; infill
G1 X96.817 Y118.947 E17.62152 ; infill
G1 X100.639 Y122.769 E17.71800 ; infill
G1 X99.925 Y122.769 E17.73075 ; infill
G1 X96.817 Y119.661 E17.80922 ; infill
G1 X96.817 Y120.374 E17.82196 ; infill
G1 X99.211 Y122.769 E17.88241 ; infill
G1 X98.497 Y122.769 E17.89515 ; infill
G1 X96.817 Y121.088 E17.93758 ; infill
G1 X96.817 Y121.802 E17.95032 ; infill
G1 X97.784 Y122.769 E17.97473 ; infill
G1 X97.070 Y122.769 E17.98748 ; infill
G1 X96.817 Y122.516 E17.99387 ; infill
G1 E17.49387 F420.00000 ; retract
G92 E0 ; reset extrusion distance
G1 Z0.500 F6000.000 ; move to next layer (1)
G1 X110.413 Y106.324 F6000.000 ; move to first perimeter point
G1 E0.50000 F420.00000 ; unretract
G1 X111.313 Y106.324 E0.51600 F4200.000 ; perimeter
G1 X111.313 Y123.070 E0.81370 ; perimeter
G1 X96.413 Y123.070 E1.07860 ; perimeter
G1 X96.413 Y109.324 E1.32296 ; perimeter
G1 X99.667 Y109.324 E1.38083 ; perimeter
G1 X99.667 Y78.570 E1.92756 ; perimeter
G1 X100.840 Y77.397 E1.95705 ; perimeter
G1 X110.413 Y86.970 E2.19772 ; perimeter
G1 X110.413 Y106.264 E2.54072 ; perimeter
G1 X110.916 Y105.821 F6000.000 ; move to first perimeter point
G1 X111.816 Y105.821 E2.55672 F4200.000 ; perimeter
G1 X111.816 Y123.572 E2.87229 ; perimeter
G1 X95.910 Y123.572 E3.15506 ; perimeter
G1 X95.910 Y108.821 E3.41730 ; perimeter
G1 X99.165 Y108.821 E3.47516 ; perimeter
G1 X99.165 Y78.362 E4.01666 ; perimeter
G1 X100.840 Y76.686 E4.05878 ; perimeter
G1 X110.916 Y86.762 E4.31210 ; perimeter
G1 X110.916 Y105.761 E4.64986 ; perimeter
G1 X111.340 Y105.397 F6000.000 ; move to first perimeter point
G1 X112.240 Y105.397 E4.66089 F2100.000 ; perimeter
G1 X112.240 Y123.997 E4.88873 ; perimeter
G1 X95.485 Y123.997 E5.09397 ; perimeter
G1 X95.485 Y108.397 E5.28506 ; perimeter
G1 X98.740 Y108.397 E5.32493 ; perimeter
G1 X98.740 Y78.186 E5.69500 ; perimeter
G1 X100.840 Y76.086 E5.73138 ; perimeter
G1 X111.340 Y86.586 E5.91327 ; perimeter
G1 X111.340 Y105.337 E6.14296 ; perimeter
G1 X111.340 Y105.797 F6000.000 ; move inwards before travel
G1 E5.64296 F420.00000 ; retract
G92 E0 ; reset extrusion distance
G1 X99.968 Y109.095 F6000.000 ; move to first infill point
G1 E0.50000 F420.00000 ; unretract
G1 X110.112 Y98.951 E0.75817 F5400.000 ; infill
G1 X110.112 Y98.231 E0.77112 ; infill
G1 X99.968 Y108.376 E1.02928 ; infill
G1 X99.968 Y107.656 E1.04223 ; infill
G1 X110.112 Y97.512 E1.30040 ; infill
G1 X110.112 Y96.792 E1.31335 ; infill
G1 X99.968 Y106.936 E1.57152 ; infill
G1 X99.968 Y106.217 E1.58446 ; infill
G1 X110.112 Y96.072 E1.84263 ; infill
G1 X110.112 Y95.353 E1.85558 ; infill
G1 X99.968 Y105.497 E2.11375 ; infill
G1 X99.968 Y104.778 E2.12670 ; infill
G1 X110.112 Y94.633 E2.38486 ; infill
G1 X110.112 Y93.914 E2.39781 ; infill
G1 X99.968 Y104.058 E2.65598 ; infill
G1 X99.968 Y103.339 E2.66893 ; infill
G1 X110.112 Y93.194 E2.92710 ; infill
G1 X110.112 Y92.475 E2.94004 ; infill
G1 X99.968 Y102.619 E3.19821 ; infill
G1 X99.968 Y101.900 E3.21116 ; infill
G1 X110.112 Y91.755 E3.46933 ; infill
G1 X110.112 Y91.036 E3.48228 ; infill
G1 X99.968 Y101.180 E3.74044 ; infill
G1 X99.968 Y100.460 E3.75339 ; infill
G1 X110.112 Y90.316 E4.01156 ; infill
G1 X110.112 Y89.596 E4.02451 ; infill
G1 X99.968 Y99.741 E4.28268 ; infill
G1 X99.968 Y99.021 E4.29562 ; infill
G1 X110.112 Y88.877 E4.55379 ; infill
G1 X110.112 Y88.157 E4.56674 ; infill
G1 X99.968 Y98.302 E4.82491 ; infill
G1 X99.968 Y97.582 E4.83786 ; infill
G1 X110.112 Y87.438 E5.09602 ; infill
G1 X109.941 Y86.889 E5.10636 ; infill
G1 X99.968 Y96.863 E5.36017 ; infill
G1 X99.968 Y96.143 E5.37312 ; infill
G1 X109.581 Y86.530 E5.61778 ; infill
G1 X109.222 Y86.170 E5.62694 ; infill
G1 X99.968 Y95.424 E5.86244 ; infill
G1 X99.968 Y94.704 E5.87538 ; infill
G1 X108.862 Y85.810 E6.10173 ; infill
G1 X108.502 Y85.450 E6.11088 ; infill
G1 X99.968 Y93.984 E6.32807 ; infill
G1 X99.968 Y93.265 E6.34102 ; infill
G1 X108.142 Y85.090 E6.54905 ; infill
G1 X107.782 Y84.731 E6.55821 ; infill
G1 X99.968 Y92.545 E6.75708 ; infill
G1 X99.968 Y91.826 E6.77003 ; infill
G1 X107.423 Y84.371 E6.95975 ; infill
G1 X107.063 Y84.011 E6.96891 ; infill
G1 X99.968 Y91.106 E7.14947 ; infill
G1 X99.968 Y90.387 E7.16242 ; infill
G1 X106.703 Y83.651 E7.33383 ; infill
G1 X106.343 Y83.292 E7.34298 ; infill
G1 X99.968 Y89.667 E7.50523 ; infill
G1 X99.968 Y88.947 E7.51818 ; infill
G1 X105.984 Y82.932 E7.67128 ; infill
G1 X105.624 Y82.572 E7.68043 ; infill
G1 X99.968 Y88.228 E7.82437 ; infill
G1 X99.968 Y87.508 E7.83732 ; infill
G1 X105.264 Y82.212 E7.97210 ; infill
G1 X104.904 Y81.852 E7.98126 ; infill
G1 X99.968 Y86.789 E8.10689 ; infill
G1 X99.968 Y86.069 E8.11984 ; infill
G1 X104.544 Y81.493 E8.23631 ; infill
G1 X104.185 Y81.133 E8.24546 ; infill
G1 X99.968 Y85.350 E8.35278 ; infill
G1 X99.968 Y84.630 E8.36573 ; infill
G1 X103.825 Y80.773 E8.46389 ; infill
G1 X103.465 Y80.413 E8.47304 ; infill
G1 X99.968 Y83.911 E8.56204 ; infill
G1 X99.968 Y83.191 E8.57499 ; infill
G1 X103.105 Y80.054 E8.65484 ; infill
G1 X102.746 Y79.694 E8.66400 ; infill
G1 X99.968 Y82.471 E8.73469 ; infill
G1 X99.968 Y81.752 E8.74763 ; infill
G1 X102.386 Y79.334 E8.80917 ; infill
G1 X102.026 Y78.974 E8.81832 ; infill
G1 X99.968 Y81.032 E8.87070 ; infill
G1 X99.968 Y80.313 E8.88365 ; infill
G1 X101.666 Y78.614 E8.92687 ; infill
G1 X101.306 Y78.255 E8.93603 ; infill
G1 X99.968 Y79.593 E8.97010 ; infill
G1 X99.968 Y78.874 E8.98304 ; infill
G1 X100.947 Y77.895 E9.00795 ; infill
G1 E8.50795 F420.00000 ; retract
G92 E0 ; reset extrusion distance
G1 X96.713 Y110.191 F6000.000 ; move to first infill point
G1 E0.50000 F420.00000 ; unretract
G1 X97.280 Y109.624 E0.51442 F5400.000 ; infill
G1 X97.999 Y109.624 E0.52737 ; infill
G1 X96.713 Y110.911 E0.56011 ; infill
G1 X96.713 Y111.630 E0.57305 ; infill
G1 X98.719 Y109.624 E0.62410 ; infill
G1 X99.439 Y109.624 E0.63705 ; infill
G1 X96.713 Y112.350 E0.70641 ; infill
G1 X96.713 Y113.069 E0.71936 ; infill
G1 X110.112 Y99.670 E1.06036 ; infill
G1 X110.112 Y100.390 E1.07330 ; infill
G1 X96.713 Y113.789 E1.41430 ; infill
G1 X96.713 Y114.509 E1.42725 ; infill
G1 X110.112 Y101.109 E1.76825 ; infill
G1 X110.112 Y101.829 E1.78120 ; infill
G1 X96.713 Y115.228 E2.12219 ; infill
G1 X96.713 Y115.948 E2.13514 ; infill
G1 X110.112 Y102.548 E2.47614 ; infill
G1 X110.112 Y103.268 E2.48909 ; infill
G1 X96.713 Y116.667 E2.83009 ; infill
G1 X96.713 Y117.387 E2.84303 ; infill
G1 X110.112 Y103.988 E3.18403 ; infill
G1 X110.112 Y104.707 E3.19698 ; infill
G1 X96.713 Y118.106 E3.53798 ; infill
G1 X96.713 Y118.826 E3.55093 ; infill
G1 X110.112 Y105.427 E3.89192 ; infill
G1 X110.112 Y106.146 E3.90487 ; infill
G1 X96.713 Y119.545 E4.24587 ; infill
G1 X96.713 Y120.265 E4.25882 ; infill
G1 X110.354 Y106.624 E4.60596 ; infill
G1 X111.012 Y106.685 E4.61786 ; infill
G1 X96.713 Y120.985 E4.98176 ; infill
G1 X96.713 Y121.704 E4.99471 ; infill
G1 X111.012 Y107.405 E5.35861 ; infill
G1 X111.012 Y108.125 E5.37156 ; infill
G1 X96.713 Y122.424 E5.73546 ; infill
G1 X97.087 Y122.769 E5.74463 ; infill
G1 X111.012 Y108.844 E6.09900 ; infill
G1 X111.012 Y109.564 E6.11195 ; infill
G1 X97.807 Y122.769 E6.44802 ; infill
G1 X98.527 Y122.769 E6.46097 ; infill
G1 X111.012 Y110.283 E6.77872 ; infill
G1 X111.012 Y111.003 E6.79167 ; infill
G1 X99.246 Y122.769 E7.09111 ; infill
G1 X99.966 Y122.769 E7.10405 ; infill
G1 X111.012 Y111.722 E7.38518 ; infill
G1 X111.012 Y112.442 E7.39813 ; infill
G1 X100.685 Y122.769 E7.66095 ; infill
G1 X101.405 Y122.769 E7.67389 ; infill
G1 X111.012 Y113.161 E7.91840 ; infill
G1 X111.012 Y113.881 E7.93135 ; infill
G1 X102.124 Y122.769 E8.15754 ; infill
G1 X102.844 Y122.769 E8.17049 ; infill
G1 X111.012 Y114.601 E8.37837 ; infill
G1 X111.012 Y115.320 E8.39131 ; infill
G1 X103.563 Y122.769 E8.58088 ; infill
G1 X104.283 Y122.769 E8.59383 ; infill
G1 X111.012 Y116.040 E8.76508 ; infill
G1 X111.012 Y116.759 E8.77803 ; infill
G1 X105.003 Y122.769 E8.93098 ; infill
G1 X105.722 Y122.769 E8.94392 ; infill
G1 X111.012 Y117.479 E9.07855 ; infill
G1 X111.012 Y118.198 E9.09150 ; infill
G1 X106.442 Y122.769 E9.20782 ; infill
